assets/icons/24px/outline/chart-pie-24px.svg

<svg width="24" height="24" viewBox="0 0 24 24" fill="none" xmlns="http://www.w3.org/2000/svg">
<path fill-rule="evenodd" clip-rule="evenodd" d="M16.3009 2.96973L16.2192 2.93076C15.6225 2.64574 15.0174 2.35674 14.4372 2.24627C13.7239 2.11044 13.0677 2.23703 12.3992 2.65876C11.6623 3.12371 11.2989 3.77041 11.1377 4.54166C10.9997 5.20239 10.9998 6.01861 11 6.90888L11 6.99993V7.99993L11 8.06576C10.9999 8.95224 10.9999 9.71606 11.0821 10.3277C11.1703 10.9832 11.369 11.6116 11.8787 12.1212C12.3883 12.6309 13.0167 12.8297 13.6722 12.9178C14.2839 13 15.0477 13 15.9342 12.9999L16 12.9999H17L17.091 12.9999C17.9813 13.0001 18.7975 13.0002 19.4583 12.8622C20.2295 12.701 20.8762 12.3376 21.3412 11.6007C21.7629 10.9322 21.8895 10.2761 21.7537 9.56268C21.6432 8.9825 21.3542 8.37742 21.0692 7.78068L21.0302 7.69906C20.0437 5.63115 18.3688 3.95621 16.3009 2.96973ZM13.4664 4.35025C13.7308 4.18345 13.8751 4.17516 14.0632 4.21097C14.3579 4.2671 14.7264 4.43455 15.4397 4.77485C17.0942 5.56408 18.4358 6.90577 19.2251 8.56019C19.5654 9.27354 19.7328 9.64199 19.789 9.93677C19.8248 10.1248 19.8165 10.2692 19.6497 10.5335C19.5261 10.7294 19.3941 10.8324 19.0492 10.9045C18.6163 10.9949 18.0123 10.9999 17 10.9999H16C15.0289 10.9999 14.4012 10.9978 13.9387 10.9356C13.505 10.8773 13.369 10.7832 13.2929 10.707C13.2168 10.6309 13.1226 10.495 13.0643 10.0612C13.0021 9.59872 13 8.97101 13 7.99993V6.99993C13 5.98764 13.005 5.38363 13.0955 4.95072C13.1675 4.60587 13.2705 4.47382 13.4664 4.35025ZM8.44503 4.83099C8.93961 4.5852 9.1413 3.98502 8.89551 3.49044C8.64973 2.99586 8.04955 2.79418 7.55497 3.03996C4.26468 4.67509 2 8.07213 2 12C2 17.5228 6.47715 22 12 22C15.8713 22 19.2271 19.7998 20.8883 16.5864C21.1419 16.0958 20.9498 15.4925 20.4592 15.2388C19.9686 14.9852 19.3653 15.1773 19.1117 15.6679C17.7804 18.2432 15.0945 20 12 20C7.58172 20 4 16.4182 4 12C4 8.86033 5.80844 6.14126 8.44503 4.83099Z" fill="white"/>
</svg>

<svg width="24" height="24" fill="none" xmlns="http://www.w3.org/2000/svg"><path fill-rule="evenodd" clip-rule="evenodd" d="M16.3 2.97l-.08-.04c-.597-.284-1.203-.573-1.783-.684-.713-.136-1.37-.009-2.038.413-.737.465-1.1 1.111-1.261 1.883C11 5.202 11 6.019 11 6.909v1.157c0 .886 0 1.65.082 2.262.088.655.287 1.284.797 1.793.51.51 1.138.709 1.793.797.612.082 1.376.082 2.262.082h1.157c.89 0 1.706 0 2.367-.138.772-.161 1.418-.524 1.883-1.261.422-.669.549-1.325.413-2.038-.11-.58-.4-1.186-.685-1.782l-.039-.082a10.037 10.037 0 0 0-4.73-4.73zm-2.834 1.38c.265-.167.41-.175.597-.139.295.056.663.224 1.377.564a8.037 8.037 0 0 1 3.785 3.785c.34.714.508 1.082.564 1.377.036.188.027.332-.14.597-.123.195-.255.298-.6.37-.433.09-1.037.096-2.049.096h-1c-.971 0-1.599-.002-2.061-.064-.434-.059-.57-.153-.646-.229-.076-.076-.17-.212-.229-.646C13.002 9.6 13 8.971 13 8V7c0-1.012.005-1.616.095-2.05.072-.344.175-.476.371-.6zm-5.021.481a1 1 0 0 0-.89-1.791A10 10 0 0 0 2 12c0 5.523 4.477 10 10 10a10 10 0 0 0 8.888-5.414 1 1 0 0 0-1.776-.918A8 8 0 1 1 8.445 4.83z" fill="#fff"/></svg>
